X:2167
T:Waxie's Dargle
M:4/4
L:1/8
Q:1/4=180
K:G
 gf|e2dc B2A2|B2G2 E2D2|G2G2 GABc|d4 B2gf|
e2dc B2A2|B2G2 E2G2|F2A2 D2EF|G2z2 G4|
B2d2 e2f2|g2d2 BAG2|Bcd2 e2f2|g4 f2gf|
e2dc B2A2|B2G2 E2G2|F2A2 D2EF|G2z2 G4|
